X: 2
T: Missa In myne zin / Credo
N: Derived from Agr1001b-Missa_In_myne_zin-Credo.krn
C: Alexander Agricola
%%abc-version 2.0
%%abcx-abcm2ps-target-version 5.9.1 (29 Sep 2008)
%%abc-creator hum2abc beta
%%abcx-conversion-date 2019/02/16 20:17:14
%%abc-edited-by Jesse Rodin
%%abc-edited-by Joel Chapman 2013/09/04
%%abcx-initial-encoding-date 2013/09/04/
%%humdrum-veritas 1479429986
%%humdrum-veritas-data 2177087941
%%linebreak <none>
%%barnumbers 0
L: 1/4
M: 2/1
Q: 1/2=120
%%staves [1 2 3 4]
V: 1 clef=treble
V: 2 clef=treble-8
V: 3 clef=treble-8
V: 4 clef=bass
K: F
[V:1] z8 | 
[V:2] z8 | 
[V:3] D8 | 
[V:4] z8 | 
[V:1] z8 | 
[V:2] z8 | 
[V:3] A4A4 | 
[V:4] z8 | 
[V:1] D8 | 
[V:2] z8 | 
[V:3] =B3cd2d2- | 
[V:4] z8 | 
[V:1] A4A4 | 
[V:2] z8 | 
[V:3] d2c=Bc2d2 | 
[V:4] z8 | 
[V:1] =B3cd2d2- | 
[V:2] z2d3c=B2- | 
[V:3] G8 | 
[V:4] z8 | 
[V:1] d2c=Bc2d2 | 
[V:2] B2AGA2G2- | 
[V:3] z8 | 
[V:4] z8 | 
[V:1] G4F2G2 | 
[V:2] GA=Bcd2e2- | 
[V:3] z8 | 
[V:4] z8 | 
[V:1] C2E2D4 | 
[V:2] edc4=B2 | 
[V:3] z8 | 
[V:4] z8 | 
[V:1] C8 | 
[V:2] c2e4dc | 
[V:3] z8 | 
[V:4] z2C,3D,E,F, | 
[V:1] z8 | 
[V:2] =BAc2F2A2 | 
[V:3] z8 | 
[V:4] G,2A,3G,F,2- | 
[V:1] z8 | 
[V:2] G4F4- | 
[V:3] z4c4 | 
[V:4] F,2E,2F,4 | 
[V:1] z8 | 
[V:2] F4z4 | 
[V:3] A4A4- | 
[V:4] z4F,4 | 
[V:1] z8 | 
[V:2] z8 | 
[V:3] A2=B2A2GF | 
[V:4] D,4D,4 | 
[V:1] z8 | 
[V:2] z4e4- | 
[V:3] E8 | 
[V:4] C,4C,4- | 
[V:1] z8 | 
[V:2] e2f2e2dc | 
[V:3] z4c4 | 
[V:4] C,2D,2C,2B,,A,, | 
[V:1] z8 | 
[V:2] =B4c4 | 
[V:3] d4c2=BA | 
[V:4] G,,4A,,4 | 
[V:1] z8 | 
[V:2] z8 | 
[V:3] G2A4BA | 
[V:4] C,4D,4 | 
[V:1] z8 | 
[V:2] z8 | 
[V:3] BAGFG4 | 
[V:4] B,,3A,,B,,4 | 
[V:1] z4A4 | 
[V:2] A4A4 | 
[V:3] A4z4 | 
[V:4] A,,8 | 
[V:1] A4c4 | 
[V:2] c4c4 | 
[V:3] z4A4 | 
[V:4] A,,4A,,4 | 
[V:1] c4G4- | 
[V:2] e6f2 | 
[V:3] A4c4 | 
[V:4] C,4C,4 | 
[V:1] G2A2=B4- | 
[V:2] g6fe | 
[V:3] c4G4- | 
[V:4] E,6F,2 | 
[V:1] B2c2d4- | 
[V:2] d6e2 | 
[V:3] G2A2=B4- | 
[V:4] G,6F,E, | 
[V:1] d2c=BA4 | 
[V:2] f4z4 | 
[V:3] B2c2d4- | 
[V:4] D,6E,F, | 
[V:1] B2A3GF2 | 
[V:2] z2F3GA=B | 
[V:3] d4c4- | 
[V:4] G,2D,2F,4 | 
[V:1] A2G3FE2 | 
[V:2] cde6 | 
[V:3] c4=B2c2 | 
[V:4] F,2E,4C,2 | 
[V:1] F2G3FE2 | 
[V:2] d4e4- | 
[V:3] A2=B2c4 | 
[V:4] D,2G,,2C,3D, | 
[V:1] G2F3ED2 | 
[V:2] e2f2d2f2 | 
[V:3] B4A2B2 | 
[V:4] E,2D,4B,,2 | 
[V:1] E2F3ED2 | 
[V:2] e2c2d4 | 
[V:3] G2A2B4 | 
[V:4] C,2F,2D,2B,,2 | 
[V:1] F2E2C2D2 | 
[V:2] z2c4B2- | 
[V:3] A6F2 | 
[V:4] D,2C,2A,,2B,,2 | 
[V:1] EDD4^C2 | 
[V:2] BAG2A4 | 
[V:3] G2D2E4 | 
[V:4] G,,2B,,2A,,4 | 
[V:1] D8 | 
[V:2] F6G2 | 
[V:3] D8 | 
[V:4] B,,8 | 
[V:1] z4A4- | 
[V:2] A4A2d2- | 
[V:3] E4F4 | 
[V:4] A,,4D,4 | 
[V:1] A4A4 | 
[V:2] d2^c=B^c4 | 
[V:3] E8 | 
[V:4] A,,8 | 
[V:1] F6G2 | 
[V:2] d6e2 | 
[V:3] D6D2 | 
[V:4] z4A,4- | 
[V:1] A6A2 | 
[V:2] f8 | 
[V:3] D4D4 | 
[V:4] A,4A,4 | 
[V:1] A4A4 | 
[V:2] f4f4- | 
[V:3] D8 | 
[V:4] F,4F,4 | 
[V:1] B4B4 | 
[V:2] f2ede4 | 
[V:3] d4B4 | 
[V:4] G,4G,4 | 
[V:1] A4z2F2- | 
[V:2] f2d2e2f2 | 
[V:3] c2A2G2A2 | 
[V:4] F,4E,2D,2- | 
[V:1] FGA=Bc2B2- | 
[V:2] d4z4 | 
[V:3] F3GA2d2 | 
[V:4] D,2C,B,,A,,2G,,2 | 
[V:1] BAA4^G2 | 
[V:2] z4z2e2- | 
[V:3] c2=BA=B4 | 
[V:4] A,,4E,4 | 
[V:1] A4G4 | 
[V:2] e2d2e4 | 
[V:3] A4=B4 | 
[V:4] F,4E,4 | 
[V:1] z2A4GF | 
[V:2] E3D/E/F2E2 | 
[V:3] A4c3=B | 
[V:4] A,,6A,,2 | 
[V:1] E2D2E4 | 
[V:2] C2D2A4 | 
[V:3] c=Bd4^c2 | 
[V:4] A,,2B,,2A,,4 | 
[V:1] D4G4- | 
[V:2] =B4c4- | 
[V:3] d4e4- | 
[V:4] z4C,4- | 
[V:1] G4G4- | 
[V:2] c2=BAe4- | 
[V:3] e2d2c3=B | 
[V:4] C,4C,4- | 
[V:1] G4G4 | 
[V:2] e4e4 | 
[V:3] c4=B4 | 
[V:4] C,2D,2E,4 | 
[V:1] A4=B4 | 
[V:2] c2d3c=B2 | 
[V:3] A4d4 | 
[V:4] F,4G,4 | 
[V:1] c6=B2 | 
[V:2] A2F2A2=B2 | 
[V:3] c3=BA2G2 | 
[V:4] A,4F,4- | 
[V:1] A4G4- | 
[V:2] c2d2e4 | 
[V:3] F4c4 | 
[V:4] F,4C,4 | 
[V:1] G2F2F4- | 
[V:2] d8 | 
[V:3] A4B4 | 
[V:4] D,4B,,4 | 
[V:1] F2EDE4 | 
[V:2] c6=B2 | 
[V:3] G8 | 
[V:4] C,8 | 
[V:1] F8 | 
[V:2] A8- | 
[V:3] F8 | 
[V:4] F,,8 | 
[V:1] z8 | 
[V:2] A4G2A2- | 
[V:3] F4E2F2- | 
[V:4] z8 | 
[V:1] c6=B2 | 
[V:2] A2GFE4 | 
[V:3] F2EDC4 | 
[V:4] z8 | 
[V:1] A4G2A2- | 
[V:2] F2A2=B2c2- | 
[V:3] z8 | 
[V:4] z8 | 
[V:1] A2GFE3D | 
[V:2] c2=BAG2A2 | 
[V:3] z8 | 
[V:4] z8 | 
[V:1] F4E4 | 
[V:2] D2d4c2 | 
[V:3] z8 | 
[V:4] z8 | 
[V:1] D3EF2G2 | 
[V:2] =B2G2A2=B2 | 
[V:3] z8 | 
[V:4] z8 | 
[V:1] F2EDC4 | 
[V:2] A2GFE4 | 
[V:3] z8 | 
[V:4] z8 | 
[V:1] z8 | 
[V:2] z8 | 
[V:3] c8 | 
[V:4] A,8 | 
[V:1] z8 | 
[V:2] z8 | 
[V:3] c4c4- | 
[V:4] A,4A,4- | 
[V:1] z8 | 
[V:2] z8 | 
[V:3] c4=B4 | 
[V:4] A,2G,F,G,2E,2 | 
[V:1] z8 | 
[V:2] z8 | 
[V:3] A8 | 
[V:4] F,2D,2C,2D,2- | 
[V:1] z8 | 
[V:2] z8 | 
[V:3] =B4c4- | 
[V:4] D,2C,B,,A,,4 | 
[V:1] z8 | 
[V:2] z8 | 
[V:3] c2=BA=B4 | 
[V:4] z4G,,4 | 
[V:1] z8 | 
[V:2] z8 | 
[V:3] z4G4 | 
[V:4] C,6D,2 | 
[V:1] z8 | 
[V:2] z8 | 
[V:3] c4d4 | 
[V:4] E,4F,4 | 
[V:1] z8 | 
[V:2] z8 | 
[V:3] e3dc=Bc2 | 
[V:4] E,4A,,4 | 
[V:1] z8 | 
[V:2] z8 | 
[V:3] =B2A3GF2 | 
[V:4] D,3C,/B,,/A,,2D,2 | 
[V:1] z8 | 
[V:2] z8 | 
[V:3] E2A4G2 | 
[V:4] C,2D,2B,,4 | 
[V:1] z8 | 
[V:2] z8 | 
[V:3] A8 | 
[V:4] A,,8 | 
[V:1] z8 | 
[V:2] z4c4 | 
[V:3] z8 | 
[V:4] z4A,4 | 
[V:1] z8 | 
[V:2] d2e4d2 | 
[V:3] z8 | 
[V:4] G,6F,2 | 
[V:1] z8 | 
[V:2] c2=B2c4 | 
[V:3] z8 | 
[V:4] E,2D,2E,4 | 
[V:1] z8 | 
[V:2] d4e2f2 | 
[V:3] z8 | 
[V:4] D,2F,2G,2A,2- | 
[V:1] z8 | 
[V:2] e2g3fed | 
[V:3] z8 | 
[V:4] A,2B,3A,G,F, | 
[V:1] z8 | 
[V:2] edc=Bc4 | 
[V:3] z8 | 
[V:4] G,F,E,D,E,4 | 
[V:1] F4F4 | 
[V:2] z8 | 
[V:3] d4d4 | 
[V:4] z8 | 
[V:1] F2E4E2 | 
[V:2] z8 | 
[V:3] d2c4=BA | 
[V:4] z8 | 
[V:1] D2F4ED | 
[V:2] z8 | 
[V:3] =B2A2d4 | 
[V:4] z8 | 
[V:1] E8 | 
[V:2] G8 | 
[V:3] c8 | 
[V:4] C,8- | 
[V:1] z8 | 
[V:2] g4f4 | 
[V:3] z8 | 
[V:4] C,4D,4 | 
[V:1] z8 | 
[V:2] e3dc=BA2- | 
[V:3] z8 | 
[V:4] C,4F,4- | 
[V:1] z8 | 
[V:2] A2G2F3E/D/ | 
[V:3] z8 | 
[V:4] F,2E,2D,4 | 
[V:1] z8 | 
[V:2] E2F2E2d2 | 
[V:3] z8 | 
[V:4] z2D,2G,3F, | 
[V:1] z8 | 
[V:2] g3fe2d2- | 
[V:3] z8 | 
[V:4] E,2D,2C,2B,,2 | 
[V:1] z8 | 
[V:2] dcc4=B2 | 
[V:3] z8 | 
[V:4] C,2E,2D,4 | 
[V:1] z4G3A | 
[V:2] c8 | 
[V:3] z4e4 | 
[V:4] C,8 | 
[V:1] =B2c3BG2 | 
[V:2] z8 | 
[V:3] e4e4 | 
[V:4] z8 | 
[V:1] B2A2F2G2 | 
[V:2] z8 | 
[V:3] d6c=B | 
[V:4] z8 | 
[V:1] E4z2c2- | 
[V:2] z8 | 
[V:3] c4=B2A2- | 
[V:4] z8 | 
[V:1] c2=B2A3G/F/ | 
[V:2] z8 | 
[V:3] A2G2F2A2- | 
[V:4] z8 | 
[V:1] E4G3F | 
[V:2] z8 | 
[V:3] A2G4c2 | 
[V:4] z8 | 
[V:1] GAB4AG | 
[V:2] z8 | 
[V:3] A2d4c=B | 
[V:4] z8 | 
[V:1] F2G2F2G2 | 
[V:2] z8 | 
[V:3] A2G2A2=B2 | 
[V:4] z8 | 
[V:1] F2G2^FEF2 | 
[V:2] z8 | 
[V:3] A2G2A4 | 
[V:4] z8 | 
[V:1] G8 | 
[V:2] z8 | 
[V:3] G6G2 | 
[V:4] z4C,4- | 
[V:1] z8 | 
[V:2] z8 | 
[V:3] c4c4 | 
[V:4] C,2C,2F,4 | 
[V:1] z8 | 
[V:2] z8 | 
[V:3] A4A4 | 
[V:4] F,4D,4 | 
[V:1] z8 | 
[V:2] z8 | 
[V:3] d6c=B | 
[V:4] D,4G,4 | 
[V:1] z8 | 
[V:2] z8 | 
[V:3] A2c4=B2 | 
[V:4] F,4E,2D,2- | 
[V:1] z8 | 
[V:2] z8 | 
[V:3] A4G2F2- | 
[V:4] D,2C,2B,,4 | 
[V:1] z8 | 
[V:2] z8 | 
[V:3] F2E3FG2- | 
[V:4] A,,3B,,C,3D, | 
[V:1] z8 | 
[V:2] z8 | 
[V:3] GA=B3cd2- | 
[V:4] E,3F,G,3F, | 
[V:1] z8 | 
[V:2] z8 | 
[V:3] dc=BA=B2c2- | 
[V:4] D,2G,3F,E,D, | 
[V:1] z8 | 
[V:2] z8 | 
[V:3] c=BA4G2 | 
[V:4] C,2D,2B,,4 | 
[V:1] C8 | 
[V:2] z4E4 | 
[V:3] A8- | 
[V:4] A,,8- | 
[V:1] C8 | 
[V:2] F4E4 | 
[V:3] A8 | 
[V:4] A,,8 | 
[V:1] z4F4 | 
[V:2] D4z2A2 | 
[V:3] z8 | 
[V:4] A,4D,4 | 
[V:1] G4F4 | 
[V:2] =B2c2d4 | 
[V:3] z8 | 
[V:4] z2C,2D,4 | 
[V:1] E3FG2A2 | 
[V:2] c3de2f2 | 
[V:3] z8 | 
[V:4] A,,4z4 | 
[V:1] G2c4=B2 | 
[V:2] e2f2d4 | 
[V:3] z8 | 
[V:4] z8 | 
[V:1] c6=BA | 
[V:2] c2A2c2d2 | 
[V:3] z8 | 
[V:4] z8 | 
[V:1] G2A2G2E2 | 
[V:2] =B2A2=B2c2 | 
[V:3] z8 | 
[V:4] z8 | 
[V:1] F2G2F2D2 | 
[V:2] A2G2A2B2 | 
[V:3] z8 | 
[V:4] z8 | 
[V:1] E2F2E2C2 | 
[V:2] G2F2G2A2 | 
[V:3] z8 | 
[V:4] z8 | 
[V:1] D2E4DC | 
[V:2] =B2c4=BA | 
[V:3] z8 | 
[V:4] z8 | 
[V:1] =B,2A,4E2 | 
[V:2] G2A2c3=B | 
[V:3] z8 | 
[V:4] z8 | 
[V:1] F2G2A3G/A/ | 
[V:2] A2=B2A2c2- | 
[V:3] z8 | 
[V:4] z8 | 
[V:1] G2F4E2 | 
[V:2] c=BA2G4 | 
[V:3] z8 | 
[V:4] z4C,4 | 
[V:1] F8 | 
[V:2] F4f4- | 
[V:3] z4F4 | 
[V:4] D,8 | 
[V:1] z8 | 
[V:2] f2ede4 | 
[V:3] G8 | 
[V:4] C,8 | 
[V:1] z8 | 
[V:2] f3edcf2- | 
[V:3] F4F4 | 
[V:4] z4F,4 | 
[V:1] z4G4 | 
[V:2] f2ede4 | 
[V:3] C4C4 | 
[V:4] G,4G,4 | 
[V:1] A8 | 
[V:2] f4F4 | 
[V:3] c4d4 | 
[V:4] F,8 | 
[V:1] G4c4 | 
[V:2] E6A2- | 
[V:3] e6dc | 
[V:4] C,8 | 
[V:1] d4d4 | 
[V:2] A2GFG4 | 
[V:3] =B2A2=B4 | 
[V:4] z8 | 
[V:1] c3=BAGc2- | 
[V:2] A8 | 
[V:3] A4c4 | 
[V:4] z2C3B,A,2- | 
[V:1] c2=BAB4 | 
[V:2] z8 | 
[V:3] d4d4 | 
[V:4] A,2G,F,G,4 | 
[V:1] c2z2c4 | 
[V:2] z2c3=BA2 | 
[V:3] c4c4 | 
[V:4] A,4A,,4 | 
[V:1] d4d4 | 
[V:2] =BAGFG4 | 
[V:3] =B4=B4 | 
[V:4] z8 | 
[V:1] c4c4 | 
[V:2] A4c4 | 
[V:3] A2c3=BA2 | 
[V:4] z8 | 
[V:1] =B4B4 | 
[V:2] d4d4 | 
[V:3] =BAGFG4 | 
[V:4] z8 | 
[V:1] A2c3=BA2 | 
[V:2] c4c4 | 
[V:3] A8 | 
[V:4] A,,8 | 
[V:1] =BAGFG4 | 
[V:2] =B4=B4 | 
[V:3] z8 | 
[V:4] E,8 | 
[V:1] A4B3A | 
[V:2] A4z2F2 | 
[V:3] c4d2c2- | 
[V:4] F,4B,,2F,2- | 
[V:1] GFF4E2 | 
[V:2] c2d2c4 | 
[V:3] cAB2G4 | 
[V:4] F,2B,,2C,4 | 
[V:1] F4z4 | 
[V:2] c6=B2 | 
[V:3] F8 | 
[V:4] A,6G,2 | 
[V:1] c6=B2 | 
[V:2] A4G4 | 
[V:3] z8 | 
[V:4] F,4E,4 | 
[V:1] A4G4 | 
[V:2] F4E4 | 
[V:3] c6=B2 | 
[V:4] F,4C,4 | 
[V:1] F4E4 | 
[V:2] F4C4 | 
[V:3] A4G4 | 
[V:4] D,4E,4 | 
[V:1] D4F4 | 
[V:2] D2F3GA=B | 
[V:3] F3ED4 | 
[V:4] F,6E,D, | 
[V:1] E4D4- | 
[V:2] c4d4 | 
[V:3] G6F2 | 
[V:4] C,4B,,4 | 
[V:1] D2C2C4- | 
[V:2] G4A4 | 
[V:3] E4F4 | 
[V:4] C,4F,,4 | 
[V:1] C2=B,A,B,4 | 
[V:2] G6F2 | 
[V:3] D8 | 
[V:4] G,,8 | 
[V:1] C8- | 
[V:2] E6D2 | 
[V:3] C8 | 
[V:4] z4E,4 | 
[V:1] C8 | 
[V:2] C8- | 
[V:3] z4E4 | 
[V:4] G,6F,2 | 
[V:1] z4E4 | 
[V:2] C8 | 
[V:3] G6F2 | 
[V:4] E,6D,2 | 
[V:1] G6F2 | 
[V:2] c8 | 
[V:3] E8 | 
[V:4] C,8 | 
[V:1] E8 | 
[V:2] c4c3=B | 
[V:3] A6G2 | 
[V:4] z4C,4 | 
[V:1] A6G2 | 
[V:2] A2d4^c2 | 
[V:3] F4E4 | 
[V:4] D,4A,,4 | 
[V:1] F4E4 | 
[V:2] d4z4 | 
[V:3] D3CG4- | 
[V:4] B,,4C,4 | 
[V:1] D4C4 | 
[V:2] z2D2E2C2 | 
[V:3] G4A4 | 
[V:4] B,,4A,,4 | 
[V:1] G8 | 
[V:2] D4d4 | 
[V:3] B8 | 
[V:4] G,,8 | 
[V:1] F4E4- | 
[V:2] c3=BAGA2- | 
[V:3] A8 | 
[V:4] A,,4C,4 | 
[V:1] E2D2D4- | 
[V:2] A2GFG4 | 
[V:3] D8 | 
[V:4] B,,8 | 
[V:1] D2^C=B,C4 | 
[V:2] A8 | 
[V:3] E8 | 
[V:4] A,,8 | 
[V:1] D8 ||  
[V:2] B4A4 ||  
[V:3] D8 ||  
[V:4] D,8 ||  
[V:1]  [K:F] [K:clef=treble][M:2/1]F8 | 
[V:2]  [K:F] [K:clef=treble-8][M:2/1]z8 | 
[V:3]  [K:F] [K:clef=treble-8][M:2/1]z8 | 
[V:4]  [K:F] [K:clef=bass][M:2/1]z8 | 
[V:1] F4F4 | 
[V:2] z8 | 
[V:3] z8 | 
[V:4] z8 | 
[V:1] E4EDC=B, | 
[V:2] c8 | 
[V:3] z8 | 
[V:4] z8 | 
[V:1] A,2E3FGA | 
[V:2] c4c4 | 
[V:3] z8 | 
[V:4] z8 | 
[V:1] G2A4^G2 | 
[V:2] =B2A2=B4 | 
[V:3] z8 | 
[V:4] z8 | 
[V:1] A8 | 
[V:2] A4D4 | 
[V:3] z2A3GFE | 
[V:4] F,8 | 
[V:1] z8 | 
[V:2] z8 | 
[V:3] D2A3=Bcd | 
[V:4] F,4F,4 | 
[V:1] z8 | 
[V:2] z8 | 
[V:3] c2d4^c2 | 
[V:4] E,2D,2E,4 | 
[V:1] z4d4 | 
[V:2] F6ED | 
[V:3] d3c=B2A2- | 
[V:4] D,6C,B,, | 
[V:1] c4c4 | 
[V:2] E2D2C4 | 
[V:3] AG^FE^F4 | 
[V:4] A,,4A,,4 | 
[V:1] =B6A2 | 
[V:2] D4d4 | 
[V:3] G8 | 
[V:4] G,,4G,,4 | 
[V:1] G4c4 | 
[V:2] e8- | 
[V:3] E4A4 | 
[V:4] C,6D,2 | 
[V:1] =B4A4- | 
[V:2] e4c2A2- | 
[V:3] G4F4 | 
[V:4] E,4F,4- | 
[V:1] A2GFG2E2 | 
[V:2] A=Bcde4 | 
[V:3] c4c4- | 
[V:4] F,2E,2C,4 | 
[V:1] F2G2F2ED | 
[V:2] d4z4 | 
[V:3] c2BAB4 | 
[V:4] D,4D,4 | 
[V:1] E8 | 
[V:2] G4A=Bcd | 
[V:3] c4c4- | 
[V:4] C,8- | 
[V:1] z4G4 | 
[V:2] e2f4e2 | 
[V:3] c2BAG4 | 
[V:4] C,8 | 
[V:1] A4c4- | 
[V:2] f6ed | 
[V:3] F3GAGA2- | 
[V:4] z8 | 
[V:1] c2=BAG4 | 
[V:2] c6=B2 | 
[V:3] A2GFE3D | 
[V:4] z4C,4 | 
[V:1] F4A4- | 
[V:2] A6G2 | 
[V:3] F4D4- | 
[V:4] D,4F,4- | 
[V:1] A2G2F4 | 
[V:2] F6E2 | 
[V:3] D4A4 | 
[V:4] F,2E,2D,3C, | 
[V:1] G4F4 | 
[V:2] D4A4 | 
[V:3] B4c2F2- | 
[V:4] B,,4A,,4 | 
[V:1] G4B4 | 
[V:2] B4G4 | 
[V:3] F2E2E2DE | 
[V:4] G,,8 | 
[V:1] A6GF | 
[V:2] A4c4- | 
[V:3] F4A4 | 
[V:4] F,,8 | 
[V:1] E8 | 
[V:2] c4c4 | 
[V:3] G8 | 
[V:4] C,8- | 
[V:1] z4G4 | 
[V:2] c8 | 
[V:3] E8 | 
[V:4] C,8 | 
[V:1] E4E4 | 
[V:2] c4e4- | 
[V:3] A4G4 | 
[V:4] z4C,4 | 
[V:1] A6G2 | 
[V:2] e2d2c4 | 
[V:3] c6=B2 | 
[V:4] A,,4A,,4 | 
[V:1] F8 | 
[V:2] d4A4- | 
[V:3] A2G2F4- | 
[V:4] D,6C,B,, | 
[V:1] F4E4 | 
[V:2] A2=B2c4 | 
[V:3] F2EFG2E2 | 
[V:4] D,4C,4 | 
[V:1] D4E4- | 
[V:2] d4c4 | 
[V:3] F2G3FED | 
[V:4] B,,4C,4- | 
[V:1] E2DC=B,4 | 
[V:2] z2C2D2E2- | 
[V:3] C4G4- | 
[V:4] C,2B,,A,,G,,4 | 
[V:1] C6=B,A, | 
[V:2] EDC=B,C4 | 
[V:3] G2^FE^F4 | 
[V:4] A,,8 | 
[V:1] =B,6C2 | 
[V:2] D4E4 | 
[V:3] G6A2 | 
[V:4] G,,8- | 
[V:1] D6E2 | 
[V:2] D2G4FE | 
[V:3] =B6c2 | 
[V:4] G,,8 | 
[V:1] F6E2- | 
[V:2] D3EFGA2- | 
[V:3] d4d2c2- | 
[V:4] z8 | 
[V:1] E2A4G2 | 
[V:2] A2GFE4 | 
[V:3] c2=BA=B4 | 
[V:4] z8 | 
[V:1] AGFEF2E2- | 
[V:2] e4c4 | 
[V:3] A6GF | 
[V:4] A,,8 | 
[V:1] E2D4^C2 | 
[V:2] z4A4 | 
[V:3] GFEDE4 | 
[V:4] A,,4A,,4 | 
[V:1] D4G4- | 
[V:2] F4B4 | 
[V:3] D2G4G2 | 
[V:4] B,,4G,,4 | 
[V:1] G2G2G4- | 
[V:2] G4E4 | 
[V:3] E2C2c4 | 
[V:4] C,6C,2 | 
[V:1] G4G4 | 
[V:2] e6e2 | 
[V:3] c8 | 
[V:4] C,4C,4 | 
[V:1] A4=B4 | 
[V:2] f4d2g2- | 
[V:3] A4d4 | 
[V:4] F,4G,4 | 
[V:1] c6=BA | 
[V:2] g2^fe^f4 | 
[V:3] c4c4 | 
[V:4] A,8 | 
[V:1] =B4d4 | 
[V:2] g8 | 
[V:3] d4=B4 | 
[V:4] G,8 | 
[V:1] c4c4 | 
[V:2] z8 | 
[V:3] A8 | 
[V:4] z8 | 
[V:1] d4=B4 | 
[V:2] z8 | 
[V:3] G8 | 
[V:4] z4G,4 | 
[V:1] A8 | 
[V:2] z8 | 
[V:3] z8 | 
[V:4] F,4F,4 | 
[V:1] G8 | 
[V:2] z4c4 | 
[V:3] z8 | 
[V:4] G,4E,4 | 
[V:1] z8 | 
[V:2] =B4=B4 | 
[V:3] z8 | 
[V:4] D,8 | 
[V:1] z4F4 | 
[V:2] c4A4 | 
[V:3] z8 | 
[V:4] C,4F,4 | 
[V:1] E4E4 | 
[V:2] G8 | 
[V:3] c8 | 
[V:4] C,8 | 
[V:1] F8 | 
[V:2] F8 | 
[V:3] A8 | 
[V:4] D,8 | 
[V:1] D6E2 | 
[V:2] G8 | 
[V:3] B6AG | 
[V:4] G,,8 | 
[V:1] F8- | 
[V:2] A4B2A2- | 
[V:3] F3EDEFG | 
[V:4] D,8 | 
[V:1] F4F4- | 
[V:2] AGFED2d2- | 
[V:3] A3GA2B2 | 
[V:4] D,4D,4- | 
[V:1] F4E4 | 
[V:2] d2D2E3D/E/ | 
[V:3] A2F2G2A2- | 
[V:4] D,4C,4 | 
[V:1] D8 | 
[V:2] FEDCD4 | 
[V:3] A2GFG4 | 
[V:4] B,,4B,,4 | 
[V:1] ^C8- | 
[V:2] E4F4 | 
[V:3] A8- | 
[V:4] A,,8- | 
[V:1] C8 ||  
[V:2] E8 ||  
[V:3] A8 ||  
[V:4] A,,8 ||  
[V:1]  [K:F] [K:clef=treble][M:2/1]z8 | 
[V:2]  [K:F] [K:clef=treble-8][M:2/1]z8 | 
[V:3]  [K:F] [K:clef=treble-8][M:2/1]E8 | 
[V:4]  [K:F] [K:clef=bass][M:2/1]z8 | 
[V:1] z8 | 
[V:2] z8 | 
[V:3] E4E3D/E/ | 
[V:4] A,,8 | 
[V:1] z8 | 
[V:2] z8 | 
[V:3] F2E2C4 | 
[V:4] A,,4A,,3G,,/A,,/ | 
[V:1] z8 | 
[V:2] z8 | 
[V:3] D2C4D2 | 
[V:4] B,,2A,,2F,,4 | 
[V:1] z8 | 
[V:2] z8 | 
[V:3] E2F2D2E2- | 
[V:4] G,,2F,,4G,,2 | 
[V:1] z8 | 
[V:2] z8 | 
[V:3] E2D4E2 | 
[V:4] A,,2B,,2G,,4 | 
[V:1] z8 | 
[V:2] z8 | 
[V:3] F2G2E2F2- | 
[V:4] A,,2G,,4A,,2 | 
[V:1] z8 | 
[V:2] z8 | 
[V:3] F2E4F2 | 
[V:4] B,,2C,2A,,4 | 
[V:1] z8 | 
[V:2] z8 | 
[V:3] G2A2F2G2- | 
[V:4] B,,2A,,4B,,2 | 
[V:1] z8 | 
[V:2] z8 | 
[V:3] G2F4G2 | 
[V:4] C,2D,2B,,4 | 
[V:1] z8 | 
[V:2] z8 | 
[V:3] A2B3ABc | 
[V:4] C,2B,,2G,,2G,2- | 
[V:1] z8 | 
[V:2] z8 | 
[V:3] B2AGA2G2- | 
[V:4] G,2F,E,F,2E,2 | 
[V:1] z8 | 
[V:2] z8 | 
[V:3] G2c4=B2 | 
[V:4] C,4D,4 | 
[V:1] z8 | 
[V:2] z8 | 
[V:3] c4z2E2- | 
[V:4] z4A,,4 | 
[V:1] z8 | 
[V:2] z8 | 
[V:3] E2G4F2- | 
[V:4] C,4B,,4 | 
[V:1] z8 | 
[V:2] z8 | 
[V:3] F2E4A2- | 
[V:4] A,,8 | 
[V:1] z8 | 
[V:2] z8 | 
[V:3] AGF2E2D2 | 
[V:4] D,4C,2B,,2 | 
[V:1] z8 | 
[V:2] z8 | 
[V:3] F2E2D2E2 | 
[V:4] A,,2G,,2B,,2A,,2- | 
[V:1] z8 | 
[V:2] z8 | 
[V:3] F2G2E2D2 | 
[V:4] A,,2G,,2A,,2B,,2 | 
[V:1] z8 | 
[V:2] z8 | 
[V:3] G2F2G2A2 | 
[V:4] C,2A,,2G,,2C,2 | 
[V:1] z8 | 
[V:2] z4z2G2 | 
[V:3] B2G2F2z2 | 
[V:4] B,,2C,2D,2_E,2 | 
[V:1] z4z2A2 | 
[V:2] A2B2G2F2 | 
[V:3] z8 | 
[V:4] C,2B,,2C,2D,2 | 
[V:1] =B2c2d2G2 | 
[V:2] G2A2=B2c2 | 
[V:3] z8 | 
[V:4] z8 | 
[V:1] F2G2E2D2 | 
[V:2] A2G2c2=B2 | 
[V:3] z8 | 
[V:4] z8 | 
[V:1] G2F2G2A2 | 
[V:2] c2d2e2c2 | 
[V:3] z8 | 
[V:4] z8 | 
[V:1] =B2c2A2G2- | 
[V:2] d2A4=B2 | 
[V:3] z8 | 
[V:4] z8 | 
[V:1] G2c2=B2A2 | 
[V:2] c2A2G2c2- | 
[V:3] z8 | 
[V:4] z8 | 
[V:1] G2A4G2 | 
[V:2] c2=BA=B4 | 
[V:3] z8 | 
[V:4] z8 | 
[V:1] F2E2F4- | 
[V:2] (3:2:2A8d4- | 
[V:3] z8 | 
[V:4] z8 | 
[V:1] F2EDE4 | 
[V:2] (3:2:2d4^c8 | 
[V:3] z8 | 
[V:4] z8 | 
[V:1] D8 | 
[V:2] d8 | 
[V:3] B4A2B2- | 
[V:4] G,4F,2G,2 | 
[V:1] z8 | 
[V:2] z8 | 
[V:3] B2AGA4 | 
[V:4] D,2G,4^F,2 | 
[V:1] B4A2B2- | 
[V:2] z2G2F2G2 | 
[V:3] GABcd4- | 
[V:4] G,4z4 | 
[V:1] B2AGB2A2- | 
[V:2] D2d4c=B | 
[V:3] d4G2A2 | 
[V:4] z8 | 
[V:1] AGG4^F2 | 
[V:2] c=BAGA4 | 
[V:3] F2E2D4 | 
[V:4] z8 | 
[V:1] G6F2- | 
[V:2] G2=B2c2d2- | 
[V:3] z8 | 
[V:4] z8 | 
[V:1] F2E2D4 | 
[V:2] dcc4=B2 | 
[V:3] z8 | 
[V:4] z8 | 
[V:1] C8 | 
[V:2] c4A4 | 
[V:3] z8 | 
[V:4] z4z2A,,2 | 
[V:1] z8 | 
[V:2] z8 | 
[V:3] E2G3GG2 | 
[V:4] C,3C,C,2C,2 | 
[V:1] z8 | 
[V:2] z8 | 
[V:3] G2F2F2E2- | 
[V:4] B,,2B,,2A,,4 | 
[V:1] z8 | 
[V:2] z8 | 
[V:3] E2G4D2- | 
[V:4] C,4G,,3A,, | 
[V:1] z8 | 
[V:2] z8 | 
[V:3] DEFGA3G/A/ | 
[V:4] B,,C,D,4C,2 | 
[V:1] z8 | 
[V:2] z8 | 
[V:3] =B2A2c2=B2- | 
[V:4] D,2F,2E,2D,2- | 
[V:1] z8 | 
[V:2] z8 | 
[V:3] BAA4G2 | 
[V:4] D,2C,2B,,4 | 
[V:1] z8 | 
[V:2] z2c3=BAG | 
[V:3] A4z4 | 
[V:4] A,,8 | 
[V:1] z8 | 
[V:2] F2G2F2E2 | 
[V:3] z8 | 
[V:4] z2G,,2A,,2C,2- | 
[V:1] z8 | 
[V:2] z2G2A2c2- | 
[V:3] z8 | 
[V:4] C,D,B,,2A,,4 | 
[V:1] z4z2G2 | 
[V:2] cd=B2A2e2- | 
[V:3] z2G2A2c2- | 
[V:4] E,4A,,4 | 
[V:1] A2c4A2- | 
[V:2] e2c2e2f2 | 
[V:3] c2A4d2 | 
[V:4] z8 | 
[V:1] A2d2c2=B2- | 
[V:2] e2d2e2E2 | 
[V:3] c2=B2A2G2 | 
[V:4] z8 | 
[V:1] BAA4^G2 | 
[V:2] F4E4- | 
[V:3] A4=B4 | 
[V:4] z8 | 
[V:1] A6G2 | 
[V:2] E2F2E4 | 
[V:3] A3=Bc4 | 
[V:4] A,,4A,,4 | 
[V:1] F4z2c2 | 
[V:2] D2F2G2A2 | 
[V:3] d4e4 | 
[V:4] D,4C,4 | 
[V:1] =B2A4^G2 | 
[V:2] z2f2e3d | 
[V:3] d3c=B4 | 
[V:4] D,4E,4 | 
[V:1] A8 | 
[V:2] c=BA2A2F2 | 
[V:3] A3=Bc2d2- | 
[V:4] F,6E,D, | 
[V:1] G4F2A2- | 
[V:2] G4A2f2- | 
[V:3] d2^c2d4 | 
[V:4] E,4D,4 | 
[V:1] A=Bc4B2 | 
[V:2] fef2d4 | 
[V:3] z8 | 
[V:4] F,4G,4 | 
[V:1] c6=BA | 
[V:2] c4c3=B | 
[V:3] F4F4 | 
[V:4] A,6G,F, | 
[V:1] G2F4G2 | 
[V:2] c2d4e2 | 
[V:3] G2A3=Bc2- | 
[V:4] E,2D,2F,2E,2 | 
[V:1] A4D3E | 
[V:2] c2d2A2=B2 | 
[V:3] c2F4G2 | 
[V:4] F,2D,4C,B,, | 
[V:1] F2G4FE | 
[V:2] c2d4c2 | 
[V:3] A2B2G2A2 | 
[V:4] A,,2G,,2B,,2A,,2 | 
[V:1] DCD4^C2 | 
[V:2] B4A4 | 
[V:3] F2G2E4 | 
[V:4] B,,2G,,2A,,4 | 
[V:1] D4z4 | 
[V:2] d2d4^c2 | 
[V:3] DEFGA4 | 
[V:4] B,,4A,,4 | 
[V:1] A4A2G2- | 
[V:2] d4z2e2- | 
[V:3] F4z4 | 
[V:4] D,3E,F,2C,2 | 
[V:1] G2G2F4 | 
[V:2] e2e2d4 | 
[V:3] z8 | 
[V:4] C,4z4 | 
[V:1] F2E4E2 | 
[V:2] d2c4G2 | 
[V:3] z8 | 
[V:4] z8 | 
[V:1] D2F4ED | 
[V:2] =B2A4GF | 
[V:3] z8 | 
[V:4] z8 | 
[V:1] C4F4 | 
[V:2] E2A2D4 | 
[V:3] z8 | 
[V:4] z8 | 
[V:1] z8 | 
[V:2] z8 | 
[V:3] c4c3=B | 
[V:4] z2A,4G,F, | 
[V:1] z8 | 
[V:2] z8 | 
[V:3] c2d3^c^c=B | 
[V:4] E,2D,2E,4 | 
[V:1] z8 | 
[V:2] z8 | 
[V:3] d2A4c2- | 
[V:4] D,4F,4 | 
[V:1] z8 | 
[V:2] z8 | 
[V:3] c2=BA=BAGF | 
[V:4] C,4D,4 | 
[V:1] z8 | 
[V:2] z8 | 
[V:3] EDA2F2G2- | 
[V:4] C,3B,,A,,2G,,2 | 
[V:1] z8 | 
[V:2] z8 | 
[V:3] GFE2D4 | 
[V:4] C,2C,4=B,,2 | 
[V:1] z8 | 
[V:2] z8 | 
[V:3] CDEFGFED | 
[V:4] C,4C,3B,,/A,,/ | 
[V:1] z8 | 
[V:2] z8 | 
[V:3] E2FGA=Bc=B | 
[V:4] G,,2F,,2F,4 | 
[V:1] z8 | 
[V:2] z8 | 
[V:3] AGA2G2d2- | 
[V:4] F,4G,3F, | 
[V:1] z8 | 
[V:2] z8 | 
[V:3] dcc4=B2 | 
[V:4] E,2D,C,D,4 | 
[V:1] z8 | 
[V:2] G4G4 | 
[V:3] c4z4 | 
[V:4] C,4C,2_E,2- | 
[V:1] z4D4 | 
[V:2] G4d4- | 
[V:3] z8 | 
[V:4] E,2D,C,B,,4 | 
[V:1] D4D4 | 
[V:2] d2B4AG | 
[V:3] z8 | 
[V:4] B,,8 | 
[V:1] A6F2- | 
[V:2] F3GABA2- | 
[V:3] D4D4 | 
[V:4] z8 | 
[V:1] F2EDC4 | 
[V:2] AGFEF3G | 
[V:3] D4A3G | 
[V:4] z8 | 
[V:1] C4D4 | 
[V:2] A4A3=B | 
[V:3] FEF4ED | 
[V:4] z8 | 
[V:1] E4F2G2 | 
[V:2] c3=BA2G2 | 
[V:3] C4D2E2 | 
[V:4] z8 | 
[V:1] A3GF3E | 
[V:2] F2D4d2- | 
[V:3] F3GA2B2- | 
[V:4] z8 | 
[V:1] D4E4 | 
[V:2] d2=B2c3=B | 
[V:3] BAGFE2A2- | 
[V:4] z4A,,4 | 
[V:1] z2c4=BA | 
[V:2] c=BAGA4 | 
[V:3] AGFEFEF2 | 
[V:4] A,,4A,,4 | 
[V:1] =B2A2GFG2 | 
[V:2] G2E2e2e2- | 
[V:3] G2c2=BA=B2 | 
[V:4] E,8 | 
[V:1] A3G/F/EDF2 | 
[V:2] e2d2c2d2 | 
[V:3] A4z2D2 | 
[V:4] F,3G,A,4- | 
[V:1] E4D2d2- | 
[V:2] c=Bc2d3c | 
[V:3] A,4D4 | 
[V:4] A,4A,4 | 
[V:1] dc=BAB2A2- | 
[V:2] =BA=Bcded2- | 
[V:3] d4G2A2 | 
[V:4] G,6F,2 | 
[V:1] AGG4^F2 | 
[V:2] d2c2d4 | 
[V:3] =B2G2A4 | 
[V:4] E,4D,4 | 
[V:1] G4z2c2 | 
[V:2] =B4A4 | 
[V:3] G4c3=B | 
[V:4] z4A,4 | 
[V:1] c3=BA2B2 | 
[V:2] c4z2g2- | 
[V:3] AGF4G2- | 
[V:4] A,3G,F,2E,2- | 
[V:1] c2d2c2=B2- | 
[V:2] g2f2e4 | 
[V:3] G2z2G4 | 
[V:4] E,2D,2E,2G,2 | 
[V:1] BAA4^G2 | 
[V:2] dcd2e2E2 | 
[V:3] A4=B4 | 
[V:4] F,4E,4 | 
[V:1] A4z2B2- | 
[V:2] F4G4 | 
[V:3] A4d2d2- | 
[V:4] z4G,,4 | 
[V:1] B2AGF2G2- | 
[V:2] D4z4 | 
[V:3] d2c=BAG=B2 | 
[V:4] G,,4D,4 | 
[V:1] G2^F2G4- | 
[V:2] d4=B2e2 | 
[V:3] A4G4 | 
[V:4] D,4E,3F, | 
[V:1] G4z4 | 
[V:2] d2g4fe | 
[V:3] =B6AG | 
[V:4] G,8 | 
[V:1] =B4c3B | 
[V:2] d4z4 | 
[V:3] G4A3G | 
[V:4] G,4F,4- | 
[V:1] A2G2F2ED | 
[V:2] z2c4=B2 | 
[V:3] F2G2A2F2 | 
[V:4] F,2E,2D,4 | 
[V:1] E8 | 
[V:2] c4c4 | 
[V:3] G4A4 | 
[V:4] C,4z4 | 
[V:1] D8 | 
[V:2] d4z2g2 | 
[V:3] B4B3c | 
[V:4] G,4G,4 | 
[V:1] z8 | 
[V:2] g3fe2d2 | 
[V:3] d4z4 | 
[V:4] G,4G,3F, | 
[V:1] z8 | 
[V:2] c2d2f2e2- | 
[V:3] z4z2c2 | 
[V:4] E,2D,4C,2 | 
[V:1] z2A3GG2- | 
[V:2] edd4c2 | 
[V:3] =B2A2=B2G2 | 
[V:4] D,2F,2E,4 | 
[V:1] G2^F2G4 | 
[V:2] d4=B4 | 
[V:3] A4G4 | 
[V:4] D,4E,4 | 
[V:1] z2G2A2=B2 | 
[V:2] e4d4 | 
[V:3] E4F2G2 | 
[V:4] C,4z4 | 
[V:1] c4c2c2 | 
[V:2] c4z2c2 | 
[V:3] A4A2A2 | 
[V:4] z8 | 
[V:1] =B2B2A4 | 
[V:2] d2e2f4 | 
[V:3] G2G2F4 | 
[V:4] z8 | 
[V:1] d2d4^c2 | 
[V:2] f2f2e2e2 | 
[V:3] z2F2G2A2 | 
[V:4] z8 | 
[V:1] d8 | 
[V:2] d4g2g2- | 
[V:3] B6B2 | 
[V:4] z4z2B,,2 | 
[V:1] z8 | 
[V:2] g2^f2g4- | 
[V:3] A2A2G4 | 
[V:4] C,2D,2_E,4- | 
[V:1] z8 | 
[V:2] g4z4 | 
[V:3] c2c4=B2 | 
[V:4] E,2_E,2D,2D,2 | 
[V:1] z8 | 
[V:2] z8 | 
[V:3] c2A4GF | 
[V:4] C,4F,2F,2- | 
[V:1] z8 | 
[V:2] z8 | 
[V:3] G4A2B2 | 
[V:4] F,2E,2F,2G,2 | 
[V:1] z8 | 
[V:2] z8 | 
[V:3] A2d4^c2 | 
[V:4] D,2F,2E,4 | 
[V:1] A4A4- | 
[V:2] f4f4- | 
[V:3] d4d4 | 
[V:4] D,4z2D,2 | 
[V:1] A2A2A4 | 
[V:2] f2ede2c2 | 
[V:3] d4c4 | 
[V:4] D,2C,B,,A,,2A,,2 | 
[V:1] B4G4 | 
[V:2] d4e2dc | 
[V:3] B4c2BA | 
[V:4] G,,2G,,2C,3D, | 
[V:1] G2A3GG2- | 
[V:2] =B2A2F2c2- | 
[V:3] G2F2D2E2 | 
[V:4] E,2F,3E,C,2 | 
[V:1] GFF4E2 | 
[V:2] cA=B2c4 | 
[V:3] F4G4 | 
[V:4] D,4C,4 | 
[V:1] F4z4 | 
[V:2] A2d4c=B | 
[V:3] F4D4 | 
[V:4] z8 | 
[V:1] F4F2F2- | 
[V:2] AGA3GFE | 
[V:3] z8 | 
[V:4] z8 | 
[V:1] F2F2E4 | 
[V:2] D4A4 | 
[V:3] d4c2c2 | 
[V:4] z8 | 
[V:1] D3EF2G2- | 
[V:2] z8 | 
[V:3] =B2d3c=BA | 
[V:4] z8 | 
[V:1] GFEDC4 | 
[V:2] z8 | 
[V:3] G2c3=BAG | 
[V:4] z8 | 
[V:1] D4D4 | 
[V:2] z8 | 
[V:3] FEF4ED | 
[V:4] z8 | 
[V:1] E3FD4 | 
[V:2] z4G4 | 
[V:3] C2c4=B2 | 
[V:4] z8 | 
[V:1] C2F4E2 | 
[V:2] A4G4 | 
[V:3] c2d2c3B | 
[V:4] z4C,4 | 
[V:1] F4G4 | 
[V:2] F4C4 | 
[V:3] A2B2G4 | 
[V:4] D,4E,4 | 
[V:1] A4A4 | 
[V:2] c4c4 | 
[V:3] F4c4- | 
[V:4] F,8 | 
[V:1] A6A2 | 
[V:2] A4F4 | 
[V:3] c4c4 | 
[V:4] F,4F,4 | 
[V:1] A4A4 | 
[V:2] f8 | 
[V:3] c4c4 | 
[V:4] F,4F,4 | 
[V:1] A6G2 | 
[V:2] f8 | 
[V:3] d6c=B | 
[V:4] D,8- | 
[V:1] F4E4 | 
[V:2] z4z2A2- | 
[V:3] A2F2G2A2 | 
[V:4] D,4C,4 | 
[V:1] D4C2C2- | 
[V:2] AGG4F2 | 
[V:3] D3C/D/E2C2 | 
[V:4] B,,4A,,4 | 
[V:1] C2=B,A,B,4 | 
[V:2] G8 | 
[V:3] D6E2 | 
[V:4] G,,4G,,4 | 
[V:1] C4z4 | 
[V:2] A3=Bc2d2 | 
[V:3] F4F4 | 
[V:4] F,,8 | 
[V:1] G4E2E2 | 
[V:2] e4e2c2- | 
[V:3] E2E2G2A2- | 
[V:4] z4C,4 | 
[V:1] A4A3G | 
[V:2] cde2f4- | 
[V:3] A=Bc2F4 | 
[V:4] A,,2A,,2D,4- | 
[V:1] F2EDF2E2 | 
[V:2] f4z2c2 | 
[V:3] A4A3G/A/ | 
[V:4] D,2C,B,,D,2C,2 | 
[V:1] D2E3DD2- | 
[V:2] d2c4=B2 | 
[V:3] B2G4G2 | 
[V:4] B,,2C,3B,,G,,2 | 
[V:1] D2C2D4- | 
[V:2] A4B4 | 
[V:3] E3FG4 | 
[V:4] A,,4G,,4 | 
[V:1] D2^C=B,C4 | 
[V:2] A4z2A2 | 
[V:3] E8 | 
[V:4] A,,8 | 
[V:1] D4E4- | 
[V:2] F2G2A2c2 | 
[V:3] D4C4 | 
[V:4] B,,4A,,4 | 
[V:1] E2D2D4- | 
[V:2] B2AGF2G2 | 
[V:3] D8 | 
[V:4] G,,4B,,4 | 
[V:1] D2^C=B,C4 | 
[V:2] A4A4- | 
[V:3] E8 | 
[V:4] A,,8 | 
[V:1] D8- | 
[V:2] A2GFB4 | 
[V:3] D8- | 
[V:4] D,8- | 
[V:1] D8 |]  
[V:2] A8 |]  
[V:3] D8 |]  
[V:4] D,8 |]  



